src/work/blix/blixmap/static/images/icon-favorite.svg

<?xml version="1.0" encoding="UTF-8" standalone="no"?>
<svg width="21px" height="19px" viewBox="0 0 21 19" version="1.1" xmlns="http://www.w3.org/2000/svg" xmlns:xlink="http://www.w3.org/1999/xlink" xmlns:sketch="http://www.bohemiancoding.com/sketch/ns">
    <!-- Generator: Sketch 3.1.1 (8761) - http://www.bohemiancoding.com/sketch -->
    <title>path</title>
    <desc>Created with Sketch.</desc>
    <defs></defs>
    <g id="List-View" stroke="none" stroke-width="1" fill="none" fill-rule="evenodd" sketch:type="MSPage">
        <g id="icon-favorite" sketch:type="MSLayerGroup" transform="translate(0.000000, 1.000000)" fill="#000000">
            <path d="M10.0748013,17.8291447 L18.7232095,8.69958678 C20.6229098,6.69419753 20.6241743,3.44415398 18.7198465,1.43387986 L18.5545927,1.25943223 C16.653035,-0.74791764 13.572969,-0.751050869 11.66845,1.25942514 L10.0748013,2.9417356 L8.48115272,1.25942514 C6.57959876,-0.747920819 3.49933777,-0.750841887 1.59500997,1.25943223 L1.42975615,1.43387986 C-0.471801519,3.44122974 -0.470071599,6.69761309 1.42639322,8.69958678 L10.0748013,17.8291447 Z" id="path" sketch:type="MSShapeGroup"></path>
        </g>
    </g>
</svg>

<svg height="19" viewBox="0 0 21 19" width="21" xmlns="http://www.w3.org/2000/svg"><path d="m10.0748013 17.8291447 8.6484082-9.12955792c1.8997003-2.00538925 1.9009648-5.2554328-.003363-7.26570692l-.1652538-.17444763c-1.9015577-2.00734987-4.9816237-2.0104831-6.8861427-.00000709l-1.5936487 1.68231046-1.59364858-1.68231046c-1.90155396-2.00734596-4.98181495-2.01026703-6.88614275.00000709l-.16525382.17444763c-1.90155767 2.00734988-1.89982775 5.26373323-.00336293 7.26570692z" fill-rule="evenodd" transform="translate(0 1)"/></svg>
